packages/ffe-icons/icons/filled/sm/blinds.svg

<svg xmlns="http://www.w3.org/2000/svg" height="20" viewBox="0 -960 960 960" width="20"><path d="M212.001-216v-515.691q0-26.527 18.903-45.417 18.902-18.891 45.445-18.891h407.626q26.543 0 45.283 18.891 18.741 18.89 18.741 45.417V-216h70q11.05 0 18.525 7.418 7.475 7.418 7.475 18.384 0 10.966-7.475 18.581-7.475 7.616-18.525 7.616H142.001q-11.05 0-18.525-7.419-7.475-7.418-7.475-18.384 0-10.966 7.475-18.581T142.001-216h70ZM264-644.999h269V-744H276.309q-5.385 0-8.847 3.462-3.462 3.462-3.462 8.847v86.692Zm0 139h269V-593H264v87.001ZM264-216h432v-238.001H584.999v80.462q10.046 6.327 15.869 16.394 5.823 10.067 5.823 22.799 0 19.901-14.017 33.969-14.017 14.068-33.845 14.068-19.829 0-33.675-14.068-13.846-14.068-13.846-33.969 0-12.732 5.823-22.799T533-373.539v-80.462H264V-216Zm320.999-428.999H696v-86.692q0-5.385-3.462-8.847-3.462-3.462-8.847-3.462h-98.692v99.001Zm0 139H696V-593H584.999v87.001Z"/></svg>

<svg xmlns="http://www.w3.org/2000/svg" height="20" viewBox="0 -960 960 960" width="20"><path d="M212-216v-515.69q0-26.53 18.9-45.42Q249.81-796 276.35-796h407.62q26.55 0 45.29 18.89T748-731.69V-216h70q11.05 0 18.52 7.42 7.48 7.42 7.48 18.38 0 10.97-7.48 18.58Q829.05-164 818-164H142q-11.05 0-18.52-7.42-7.48-7.42-7.48-18.38 0-10.97 7.48-18.58Q130.95-216 142-216h70Zm52-429h269v-99H276.31q-5.39 0-8.85 3.46t-3.46 8.85V-645Zm0 139h269v-87H264v87Zm0 290h432v-238H585v80.46q10.04 6.33 15.87 16.4 5.82 10.06 5.82 22.79 0 19.91-14.02 33.97-14.01 14.07-33.84 14.07-19.83 0-33.68-14.07-13.84-14.06-13.84-33.97 0-12.73 5.82-22.79 5.82-10.07 15.87-16.4V-454H264v238Zm321-429h111v-86.69q0-5.39-3.46-8.85t-8.85-3.46H585v99Zm0 139h111v-87H585v87Z"/></svg>
